X:1
T:Title
%%score ( 1 2 ) ( 3 4 )
L:1/8
Q:1/4=100
M:4/4
K:G
V:1 treble nm="Midi_20"
V:2 treble 
V:3 bass nm="Midi_20"
V:4 bass 
V:1
"^Whitehall (L.M.)""^Henry Lawes\n(1596-1662)" G4 F2 E2 | G2 B,2 C2 E2 | D4 || D4 | E2 F2 G2 F2 | %5
 E2 B2 A4 || A4 c2 B2 | E2 F2 G2 A2 | B4 || B4 | d2 A2 c2 B2 | A2 A2 G4 |] %12
V:2
 D4 B,2 E2 | D2 B,2 G,2 CB, | A,4 || D4 | C2 A,2 G,2 D2 | C2 D2 D4 || F4 F2 GF | E2 DC B,2 A,2 | %8
 D4 || G4 | =F2 D2 G2 G2 | G2 F2 G4 |] %12
V:3
 B,4 F,2 G,2 | G,2 G,2 G,2 A,G, | F,4 || G,4 | G,2 D2 B,2 B,2 | G,2 G,2 F,4 || D4 C2 D2 | %7
 DC B,A, G,2 D2 | D4 || B,4 | A,2 D2 C2 D2 | D3 C B,4 |] %12
V:4
 G,4 D,2 C,2 | B,,2 G,,2 E,2 C,2 | D,4 || B,,4 | C,2 D,2 E,2 B,,2 | C,2 G,,2 D,4 || D,4 A,,2 B,,2 | %7
 C,2 D,2 E,2 F,2 | G,4 || G,4 | D,2 =F,2 E,2 G,2 | D,2 D,2 G,,4 |] %12

